X:13
T:Lar H\"okpers' Vals
R:vals
C:Lars H\"okpers
A:Dalarna
Z:id:hn-vals-13
M:3/4
L:1/8
K:Dm
A2|d3 efa|g3 {ag}fed|{^cd}c2 A3 G|F4 D2|F2 DF AG|E4 c2|=B2 GA Bd|A4 A2|
d3 efa|g3 {ag}fed|{^cd}c2 A3 G|F4 E2|D2 ^CD EF|A2 G3 E|F2 EF E^C|D4:|
|:A2|AF FD FA|AF FD FA|A2 G2 F2|E4 G2|GE E^C EG|GE E^C EG|G2 A3 G|F4 A2|
AF FD FA|AF FD FA|A2 d3 c|B4 B2|(3BAB c2 B2|A3 G F2|GF (3EFE D^C|D4:|
